svgs/thin/user-gear.svg

<svg xmlns="http://www.w3.org/2000/svg" viewBox="0 0 640 512"><!--! Font Awesome Pro 6.3.0 by @fontawesome - https://fontawesome.com License - https://fontawesome.com/license (Commercial License) Copyright 2023 Fonticons, Inc. --><path d="M413.8 495C411.5 495.7 409.1 496 406.6 496H41.44C27.41 496 16 485.2 16 472C16 388.2 87.41 320 175.2 320h97.69c15.34 0 30.5 2.062 44.97 6.156c4.406 1.25 8.688-1.281 9.875-5.5c1.219-4.25-1.25-8.688-5.5-9.875C306.3 306.3 289.7 304 272.8 304H175.2C78.56 304 0 379.4 0 472C0 494.1 18.59 512 41.44 512h365.1c3.969 0 7.875-.5313 11.59-1.594c4.25-1.188 6.75-5.594 5.531-9.844C422.5 496.3 418.1 493.8 413.8 495zM224 256c70.7 0 128-57.31 128-128S294.7 0 224 0C153.3 0 96 57.31 96 128S153.3 256 224 256zM224 16c61.76 0 112 50.24 112 112S285.8 240 224 240S112 189.8 112 128S162.2 16 224 16zM631.8 380.6l-20.45-11.82c1.717-11.18 1.805-21.48 0-33.53l20.45-11.82c6.693-3.83 9.844-11.88 7.453-19.15c-6.496-19.51-16.68-37.22-30.29-52.62c-2.912-3.215-7.494-5.176-12.22-5.176c-2.723 0-5.492 .6484-8.025 2.08l-20.95 12.13c-8.719-6.869-18.28-12.39-28.57-16.5V219.1c0-7.684-5.373-14.41-12.77-15.99c-11.45-2.385-21.78-3.207-30.66-3.207c-14.11 0-24.57 2.07-30.11 3.236c-7.398 1.547-12.77 8.277-12.77 15.96v24.19c-10.26 4.111-19.83 9.631-28.54 16.5L403.4 248.6c-2.361-1.402-5.217-2.129-8.135-2.129c-4.426 0-8.998 1.676-12.2 5.225c-13.58 15.37-23.76 33.08-30.26 52.62c-2.391 7.234 .7598 15.29 7.426 19.12l20.47 11.82c-1.803 12.04-1.721 22.34 0 33.53l-20.45 11.82c-6.693 3.828-9.844 11.88-7.453 19.14c6.498 19.51 16.68 37.22 30.29 52.62c2.289 2.553 6.92 5.273 12.27 5.273c2.557 0 5.275-.6211 7.98-2.176l20.73-11.96c8.803 6.953 18.42 12.53 28.77 16.67v23.88c0 7.688 5.371 14.39 12.8 15.96c11.42 2.381 21.75 3.201 30.64 3.201c14.09 0 24.58-2.061 30.14-3.229c7.367-1.549 12.74-8.25 12.74-15.94v-23.88c10.35-4.139 19.99-9.713 28.8-16.67l20.67 11.94c2.414 1.396 5.285 2.127 8.203 2.127c4.404 0 8.916-1.668 12.13-5.225c13.58-15.37 23.76-33.08 30.26-52.62C641.6 392.5 638.4 384.4 631.8 380.6zM596.6 441.6l-30.07-17.37l-8.52 6.729c-7.553 5.967-15.9 10.8-24.82 14.37l-10.06 4.023l-.0332 34.99c-4.107 .8633-13.73 2.887-26.84 2.887c-9.045 0-18.25-.9648-27.44-3.166v-34.71l-10.06-4.023c-8.881-3.551-17.22-8.385-24.79-14.37l-8.518-6.727l-30.39 17.55c-12.16-13.76-21.27-29.6-26.81-47.32l29.91-17.3l-1.66-10.81c-1.523-9.914-1.521-18.51 .0098-28.73l1.613-10.78l-30.16-17.49c5.818-17.49 14.93-33.33 27.39-46.92l30.29 17.55l8.529-6.719c7.477-5.893 15.75-10.67 24.59-14.22l10.05-4.025l.0664-35.32c4.111-.8652 13.74-2.893 26.81-2.893c9.037 0 18.26 .9648 27.43 3.197v35.02l10.06 4.02c8.846 3.533 17.12 8.314 24.61 14.21l8.527 6.717l30.59-17.73c12.16 13.76 21.28 29.6 26.82 47.32l-29.87 17.28l1.611 10.77c1.531 10.22 1.533 18.81 .0098 28.73l-1.66 10.81l30.19 17.52C618.2 412.2 609.1 427.1 596.6 441.6zM496 304c-26.51 0-48 21.49-48 48s21.49 48 48 48S544 378.5 544 352S522.5 304 496 304zM496 384c-17.64 0-32-14.36-32-32s14.36-32 32-32s32 14.36 32 32S513.6 384 496 384z"/></svg>

<svg xmlns="http://www.w3.org/2000/svg" viewBox="0 0 640 512"><!-- Font Awesome Pro 6.0.0-alpha2 by @fontawesome - https://fontawesome.com License - https://fontawesome.com/license (Commercial License) --><path d="M413.844 495.031C411.531 495.656 409.062 496 406.562 496H41.438C27.406 496 16 485.219 16 472C16 388.188 87.406 320 175.156 320H272.844C288.188 320 303.344 322.062 317.812 326.156C322.219 327.406 326.5 324.875 327.688 320.656C328.906 316.406 326.438 311.969 322.188 310.781C306.281 306.281 289.656 304 272.844 304H175.156C78.562 304 0 379.375 0 472C0 494.062 18.594 512 41.438 512H406.562C410.531 512 414.438 511.469 418.156 510.406C422.406 509.219 424.906 504.812 423.688 500.562C422.531 496.312 418.125 493.844 413.844 495.031ZM224 256C294.695 256 352 198.691 352 128S294.695 0 224 0C153.312 0 96 57.309 96 128S153.312 256 224 256ZM224 16C285.758 16 336 66.242 336 128S285.758 240 224 240S112 189.758 112 128S162.242 16 224 16ZM631.752 380.594L611.307 368.77C613.023 357.59 613.111 347.293 611.307 335.236L631.752 323.412C638.445 319.582 641.596 311.529 639.205 304.266C632.709 284.754 622.527 267.047 608.916 251.645C606.004 248.43 601.422 246.469 596.691 246.469C593.969 246.469 591.199 247.117 588.666 248.549L567.715 260.684C558.996 253.814 549.434 248.295 539.143 244.184V219.998C539.143 212.314 533.77 205.584 526.373 204.008C514.928 201.623 504.596 200.801 495.711 200.801C481.604 200.801 471.137 202.871 465.6 204.037C458.201 205.584 452.83 212.314 452.83 219.998V244.184C442.566 248.295 433.004 253.814 424.285 260.684L403.391 248.578C401.029 247.176 398.174 246.449 395.256 246.449H395.248C390.822 246.449 386.258 248.125 383.057 251.674C369.473 267.047 359.293 284.754 352.795 304.295C350.404 311.529 353.555 319.582 360.221 323.412L380.695 335.236C378.893 347.279 378.975 357.576 380.695 368.77L360.248 380.594C353.555 384.422 350.404 392.475 352.795 399.738C359.293 419.25 369.473 436.959 383.084 452.359C385.373 454.912 390.004 457.633 395.354 457.633C397.91 457.633 400.629 457.012 403.334 455.457L424.061 443.492C432.863 450.445 442.482 456.02 452.83 460.158V484.033C452.83 491.721 458.201 498.422 465.627 499.998C477.049 502.379 487.375 503.199 496.266 503.199C510.357 503.199 520.848 501.139 526.402 499.971C533.77 498.422 539.143 491.721 539.143 484.033V460.158C549.49 456.02 559.137 450.445 567.939 443.492L588.609 455.43C591.023 456.826 593.895 457.557 596.813 457.557C601.217 457.557 605.729 455.889 608.945 452.332C622.527 436.959 632.709 419.25 639.205 399.709C641.596 392.475 638.445 384.422 631.752 380.594ZM596.611 441.574L575.941 429.637L566.541 424.207L558.021 430.936C550.469 436.902 542.117 441.734 533.201 445.301L523.143 449.324V460.158L523.109 484.312C519.002 485.176 509.383 487.199 496.266 487.199C487.221 487.199 478.012 486.234 468.83 484.033V449.324L458.771 445.301C449.891 441.75 441.549 436.916 433.979 430.936L425.461 424.209L416.061 429.635L395.072 441.764C382.916 428.008 373.799 412.168 368.258 394.443L388.705 382.619L398.17 377.146L396.51 366.338C394.986 356.424 394.988 347.83 396.52 337.605L398.133 326.83L388.697 321.381L367.977 309.344C373.795 291.85 382.902 276.012 395.369 262.422L416.264 274.527L425.658 279.971L434.187 273.252C441.664 267.359 449.937 262.578 458.779 259.035L468.83 255.01V244.184L468.896 219.693C473.008 218.828 482.635 216.801 495.711 216.801C504.748 216.801 513.967 217.766 523.143 219.998V255.021L533.207 259.041C542.053 262.574 550.33 267.355 557.812 273.252L566.34 279.969L575.734 274.529L596.926 262.238C609.088 276.002 618.205 291.842 623.742 309.561L603.297 321.385L593.871 326.836L595.482 337.605C597.014 347.824 597.016 356.42 595.492 366.34L593.832 377.146L603.297 382.619L624.021 394.662C618.207 412.15 609.102 427.99 596.611 441.574ZM496 304C469.49 304 448 325.49 448 352S469.49 400 496 400S544 378.51 544 352S522.51 304 496 304ZM496 384C478.355 384 464 369.645 464 352S478.355 320 496 320S528 334.355 528 352S513.645 384 496 384Z"/></svg>
